app/img/cloudguard_logo.svg

<svg width="71" height="82" viewBox="0 0 71 82" fill="none" xmlns="http://www.w3.org/2000/svg">
<path d="M35.4904 70.2143L10.1947 55.6072V26.3928L35.4904 11.7857L42.1008 15.6064L52.2367 9.66953L35.4904 0L0 20.4853V61.4853L35.4904 82L58.142 69.3032L47.9767 63.3663L35.4904 70.2143Z" fill="white"/>
<path d="M46.6549 35.1219V46.8487L60.7864 38.1491V55.6072L53.7354 59.6337L63.8419 65.5706L70.9811 61.4853V20.4853L46.6549 35.1219Z" fill="#00BFBF"/>
</svg>

<svg width="71" height="82" fill="none" xmlns="http://www.w3.org/2000/svg"><path d="M35.49 70.214L10.195 55.607V26.393L35.49 11.786l6.61 3.82L52.238 9.67 35.49 0 0 20.485v41L35.49 82l22.652-12.697-10.165-5.937-12.487 6.848z" fill="#fff"/><path d="M46.655 35.122v11.727l14.131-8.7v17.458l-7.05 4.027 10.106 5.937 7.14-4.086v-41L46.654 35.122z" fill="#00BFBF"/></svg>
